!!!COM: Scriabin, Alexander
!!!OTL@@FR: Allegro de Concert
!!!OTL@@EN: Allegro de Concert
!!!OPS: 18
!!!ODT: 1896
!!!AGN: Concert work
**kern	**kern	**dynam
*staff2	*staff1	*staff1/2
*Ipiano	*Ipiano	*
*clefF4	*clefG2	*
*k[b-e-a-d-g-]	*k[b-e-a-d-g-]	*
*b-:	*b-:	*
*M4/4	*M4/4	*
*met(c)	*met(c)	*
8BBB- 8BB-	8r	.
=1	=1	=1
*^	*	*
4B-	8EnL 8en	4b- 4dd- 4bb-	.
.	8FJ 8f	.	.
*clefG2	*	*	*
4rc	4d- 4b- 4ff	4bb- 4fff 4bbb-	.
4rc	4raa	4r	.
4rc	12dd-L	12ddd-L	.
.	12g-	12gg-	.
.	12enJ	12eenJ	.
*v	*v	*	*
*clefF4	*	*
=2	=2	=2
12fL	12ffL	.
12B-	12b-	.
12G-J	12g-J	.
12FL	12fL	.
12d-	12dd-	.
12G-J	12g-J	.
12EnL	12enL	.
12F	12f	.
12BB-J	12B-J	.
8FF	8F	.
8BBB- 8BB-	8r	.
=3	=3	=3
*^	*	*
4c-X	8FL 8f	4b- 4ee- 4bb-	.
.	8G-J 8g-	.	.
*clefG2	*	*	*
4rc	4e- 4cc-X 4gg-	4bb- 4eee- 4bbb-	.
2rc	4raa	4r	.
.	12ee-L	12eee-L	.
.	12a-	12aa-	.
.	12fJ	12ffJ	.
*v	*v	*	*
*clefF4	*	*
=4	=4	=4
12g-L	12gg-L	.
12c-X	12cc-X	.
12A-J	12a-J	.
12G-L	12g-L	.
12e-	12ee-	.
12A-J	12a-J	.
12FL	12fL	.
12G-	12g-	.
12C-XJ	12c-XJ	.
8GG-	8G-	.
8BBB- 8BB-	8r	.
=5	=5	=5
8AAA-L 8AA-	4r	.
8AAAnJ 8AAn	.	.
8r	4F 4cn 4e- [4f	.
8AAA 8AA	.	.
8AAAL 8AA	8fL]	.
8BBB-J 8BB-	8g-J	.
8r	4G- 4e- 4b-	.
8BBB- 8BB-	.	.
=6	=6	=6
8CC-XL 8C-X	4r	.
8CCnJ 8Cn	.	.
8r	4An 4e- 4g- [4an	.
8CC 8C	.	.
8CCL 8C	8aL]	.
8DD-J 8D-	8b-J	.
8r	4B- 4g- 4dd-	.
8DD- 8D-	.	.
=7	=7	=7
8DDnL 8Dn	4r	.
8EE-J 8E-	.	.
8r	2c 2g- 2cc	.
8B-	.	.
8b-L	.	.
8B-J	.	.
8r	[4d- [4g- [4dd-	.
8EE- 8E-	.	.
=8	=8	=8
8EE-L 8E-	4d-] 4g-] 4dd-]	.
8EEnJ 8En	.	.
8r	2d- 2g- 2dd-	.
8B-	.	.
8b-L	.	.
8B-J	.	.
8r	[4c 4g- [4cc	.
8FF 8F	.	.
=9	=9	=9
8FL	8c] 8f 8cc]	.
8AnJ 8c 8f	8r	.
8r	4f 4an 4ff	.
8FF 8F	.	.
8D-L	4g- 4b-	.
8G-J 8B- 8f	.	.
8r	4g- 4b- 4dd-	.
8FF 8F	.	.
=10	=10	=10
8CL	4g- 4b- 4ee-	.
8G-J 8B- 8e-	.	.
8r	4g-	.
8FF 8F	.	.
8BB-L	4gn	.
8GnJ 8en	.	.
8r	4d- 4b- 4dd-	.
8FFF 8FF	.	.
=11	=11	=11
*^	*	*
4C	8CL	4c 4f 4an 4cc	.
.	8FFJ 8F	.	.
*	*	*clefF4	*
4rEE	8rc	4F 4An 4f	.
.	8FFF 8FF	.	.
4D-	8D-L	4G- 4B-	.
.	8FFJ 8F	.	.
4rEE	8rc	4G- 4B- 4d-	.
.	8FFF 8FF	.	.
=12	=12	=12	=12
4C	8CL	4G- 4B- 4e-	.
.	8FFJ 8E-	.	.
4rEE	8rc	4G-	.
.	8FFF 8FF	.	.
4BB-	8BB-L	4Gn	.
.	8FFJ 8En	.	.
4rEE	8rc	4D- 4B- 4d-	.
.	8FFF 8FF	.	.
=13	=13	=13	=13
4C	8CL	4C 4An 4c	.
.	8FFJ 8F	.	.
4rEE	8rc	4F 4A 4f	.
.	8DD- 8D-	.	.
2rEE	8DD-L 8D-	4r	.
.	8BBB-J 8BB-	.	.
.	8rc	4G- 4B- 4en 4f	.
.	8FFF 8FF	.	.
=14	=14	=14	=14
4C	8CL	4r	.
.	8FFJ 8F	.	.
4rEE	8rc	4F 4An 4f	.
.	8DD- 8D-	.	.
2rEE	8DD-L 8D-	4r	.
.	8BBB-J 8BB-	.	.
.	8rc	4G- 4B- 4en 4f	.
.	8FFF 8FF	.	.
=15	=15	=15	=15
4C	8CL	4r	.
.	8FFJ 8F	.	.
4rEE	8rc	4F 4An 4f	.
.	8EE- 8E-	.	.
8FL 8f	4f	4r	.
8AnJ 8c	.	.	.
*	*	*clefG2	*
4rEE	8rc	4f 4an 4ff	.
.	8DD- 8D-	.	.
=16	=16	=16	=16
8FL	4F 4f	4r	.
8B-J	.	.	.
4rEE	8rc	4gn 4b- 4ff 4ggn	.
.	8CC 8C	.	.
8FL	4F 4f	4r	.
8AnJ 8e-	.	.	.
4rEE	8rc	4an 4ee- 4ff 4aan	.
.	8BBB- 8BB-	.	.
=17	=17	=17	=17
4B-	8EnL 8en	4b- 4dd- 4bb-	.
.	8FJ 8f	.	.
*clefG2	*	*	*
4rc	4d- 4b- 4ff	4bb- 4fff 4bbb-	.
4rc	4raa	4r	.
4rc	12dd-L	12ddd-L	.
.	12g-	12gg-	.
.	12enJ	12eenJ	.
*v	*v	*	*
*clefF4	*	*
=18	=18	=18
12fL	12ffL	.
12B-	12b-	.
12G-J	12g-J	.
12FL	12fL	.
12d-	12dd-	.
12G-J	12g-J	.
12EnL	12enL	.
12F	12f	.
12BB-J	12B-J	.
8FF	8F	.
8FFF 8FF	8r	.
=19	=19	=19
8A-L 8d-	4a- 4dd- 4aa-	.
8D-J	.	.
*clefG2	*	*
4d- 4a- 4dd-	4aa- 4ddd- 4aaa-	.
4r	4r	.
12ffL	12fffL	.
12b-	12bb-	.
12gnJ	12ggnJ	.
=20	=20	=20
12a-L	12aa-L	.
12d-	12dd-	.
12B-J	12b-J	.
*clefF4	*	*
12A-L	12a-L	.
12f	12ff	.
12B-J	12b-J	.
12GnL	12gnL	.
12A-	12a-	.
12D-J	12d-J	.
8AA-	8A-	.
8FF 8F	8r	.
=21	=21	=21
4EE- 4E-	4r	.
4EEn 4En	12gggnL	.
.	12ddd-	.
.	12bbnJ	.
*clefG2	*	*
4c 4gn 4cc	12cccL	.
.	12ggn	.
.	12ccJ	.
*clefF4	*	*
4EEn 4En	12aa-L	.
.	12ff#X	.
.	12ggJ	.
=22	=22	=22
4EEn 4En	12dd-L	.
.	12aan	.
.	12bb-J	.
8FF 8F	12ddd-L	.
.	12ccc	.
*clefG2	*	*
8dd-	.	.
.	12ddd-J	.
4d- 4b- 4ff	12bbb-L	.
.	12aaan	.
.	12bbb-J	.
*clefF4	*	*
4FF 4F	12dddd-L	.
.	12bbb-	.
.	12ddd-J	.
=23	=23	=23
4FF 4F	4r	.
4GG- 4G-	12bbb-L	.
.	12eee-	.
.	12cccJ	.
*clefG2	*	*
4f-X 4b- 4ff-X	12ddd-L	.
.	12bb-	.
.	12dd-J	.
*clefF4	*	*
4GG- 4G-	12ee-L	.
.	12cc	.
.	12dd-J	.
=24	=24	=24
4GG- 4G-	12dd-L	.
.	12ee-	.
.	12bb-J	.
8GGn 8Gn	12ddd-L	.
.	12ccc	.
*clefG2	*	*
8ee-	.	.
.	12ddd-J	.
4e- 4dd- 4bb-	12eee-L	.
.	12gggn	.
.	12aaa-J	.
8e-L 8b- 8dd-	12bbb-L	.
.	12cccc	.
8GnJ	.	.
.	12dddd-J	.
=25	=25	=25
8enL 8b- 8dd-	12bbb-L	.
.	12ddd-	.
8GnJ	.	.
.	12bb-J	.
*clefF4	*	*
4GGGn 4GGn	12b-L	.
.	12en	.
.	12cJ	.
4GGG 4GG	12d-L	.
.	12B-	.
.	12EnJ	.
*clefG2	*	*
8enL 8b- 8dd-	12ddd-L	.
.	12ccc	.
8GnJ	.	.
.	12ddd-J	.
=26	=26	=26
8enL 8b-- 8dd-	12eeenL	.
.	12bb--	.
8GnJ	.	.
.	12eenJ	.
*clefF4	*	*
4GGGn 4GGn	12b--L	.
.	12en	.
.	12cJ	.
2GGG 2GG	12d-L	.
.	12B--	.
.	12EnJ	.
.	12dd-L	.
.	12b--	.
.	12eJ	.
=27	=27	=27
4AAA- 4AA-	12fL	.
.	12d-	.
.	12FJ	.
4AA- 4A-	12ffL	.
.	12dd-	.
.	12fJ	.
4BB-- 4B--	12g-L	.
.	12G-	.
.	12d-J	.
4FF-X 4F-X	12gnL	.
.	12dd-	.
.	12ggnJ	.
=28	=28	=28
2EE- 2E-	12g-XL 12a- 12dd- 12aa-	.
.	12gg-X	.
.	12ee-J	.
.	12b-L	.
.	12a-	.
.	12e-J	.
8AAA- 8AA-	8G- 8A- 8c 8a-	.
8AAA-L 8AA-	8G-L 8A- 8c	.
8BBB- 8BB-	8G- 8A- 8d-	.
8CCJ 8C	8G-J 8A- 8e-	.
=29	=29	=29
[2DD- [2D-	2F 2A- 2d- 2f	.
4.DD-] 4.D-]	2B- 2f 2b-	.
8EE- 8E-	.	.
=30	=30	=30
*	*^	*
2FF 2F	4rc	4A- 4c 4a-	.
*	*clefF4	*	*
.	2A-	[4C [4c	.
2FFF 2FF	.	8CL] 8c]	.
.	.	8D-J 8d-	.
.	4A- 4d-	8E-L 8e-	.
.	.	8FJ 8f	.
=31	=31	=31	=31
4FF 4F	4G-	8BB-L 8B-	.
.	.	8CJ 8c	.
4EE- 4E-	4G- 4B-	8D-L 8d-	.
.	.	8FJ 8f	.
[2BBB- [2BB-	4G- 4d-	8E- 8e-	.
*	*clefG2	*	*
.	.	4c 4cc	.
.	4G- 4d-	.	.
.	.	8B- 8b-	.
=32	=32	=32	=32
4BBB-] 4BB-]	4G- 4d-	2.E- 2.e-	.
4AAA- 4AA-	4A- 4c	.	.
4GGG- 4GG-	4B-	.	.
8.CC-XL 8.C-X	4dn	4F 4A- 4f	.
16BBB-Jk 16BB-	.	.	.
*	*v	*v	*
=33	=33	=33
2EEE- 2EE-	2G- 2B- 2e- 2g-	.
4.EE- 4.E-	2c-X 2g- 2cc-X	.
8FF 8F	.	.
=34	=34	=34
*	*^	*
2GG- 2G-	4rc	4B- 4dn 4b-	.
.	2B-	[4Dn [4d	.
4GGG- 4GG-	.	8DL] 8d]	.
.	.	8E-J 8e-	.
8FFFL 8FF	4B- 4e-	8FL 8f	.
8EEE-J 8EE-	.	8G-J 8g-	.
*	*clefF4	*	*
=35	=35	=35	=35
4EE- 4E-	4G-	8BB-L 8B-	.
.	.	8CJ 8c	.
2BBB- 2BB-	4G- 4B-	8D-L 8d-	.
.	.	8FJ 8f	.
.	2G- 2c	4.E- 4.e-	.
[4BBB-- [4BB--	.	.	.
.	.	8D- 8d-	.
*	*v	*v	*
=36	=36	=36
4BBB--] 4BB--]	2D- 2F 2d-	.
4AAA- 4AA-	.	.
4GGGn 4GGn	4D- 4En 4B-	.
4GGG-X 4GG-X	4D- 4E 4B--	.
*	*clefG2	*
=37	=37	=37
*^	*	*
12rEE	12DDD-L 12DD-	2f 2dd- 2ff	.
6D-	12GGn 12Gn	.	.
.	12AA-J 12A-	.	.
4rEE	12FL 12d- 12f	.	.
.	12AA- 12A-	.	.
.	12DDD-J 12DD-	.	.
4rEE	12DDD-L 12DD-	2b- 2ff 2bb-	.
.	12BB- 12F 12B-	.	.
.	12FJ 12B- 12f	.	.
4rEE	12FL 12B- 12f	.	.
.	12EEE- 12EE-	.	.
.	12FFFJ 12FF	.	.
*v	*v	*	*
=38	=38	=38
*	*^	*
12FFFL 12FF	4rc	4a- 4cc 4aa-	.
12C 12c	.	.	.
12A-J 12f	.	.	.
12A-L 12f	4a-	[4c [4cc	.
12C 12c	.	.	.
12FFJ 12F	.	.	.
12FFL 12F	4a-	8cL] 8cc]	.
12AA- 12A-	.	.	.
.	.	8d-J 8dd-	.
12D-J 12A- 12d-	.	.	.
12D-L 12A- 12d-	4a-	8e-L 8ee-	.
12AA- 12A-	.	.	.
.	.	8fJ 8ff	.
12FFJ 12F	.	.	.
*	*v	*v	*
=39	=39	=39
12FFL 12F	8B-L 8g- 8b-	.
12D- 12G- 12B-	.	.
.	8cJ 8g- 8b- 8cc	.
12D-J 12G- 12d-	.	.
12EE-L 12E-	8d-L 8g- 8b- 8dd-	.
12D- 12G- 12d-	.	.
.	8fJ 8b- 8dd- 8ff	.
12G-J 12d- 12g-	.	.
12BBB-L 12BB-	8e-L 8g- 8dd- 8ee-	.
12E- 12G- 12d-	.	.
.	[8ccJ [8gg- [8ccc	.
12G-J 12d- 12g-	.	.
12d-L 12g- 12dd-	8ccL] 8gg-] 8ccc]	.
12G- 12d- 12g-	.	.
.	8b-J 8gg- 8bb-	.
12E-J 12G- 12d-	.	.
=40	=40	=40
*	*^	*
12BBB-L 12BB-	4e- 4g- 4dd-	2.e- 2.ee-	.
12E- 12G- 12d-	.	.	.
12G-J 12d- 12g-	.	.	.
12AAA-L 12AA-	4e- 4a- 4cc	.	.
12E- 12A- 12c	.	.	.
12A-J 12c 12a-	.	.	.
12GGG-L 12GG-	4e- 4b-	.	.
12E- 12B- 12e-	.	.	.
12B-J 12e- 12b-	.	.	.
12CC-XL 12C-X	4a- 4ddn	4f 4ff	.
12A- 12dn 12a-	.	.	.
12BBB-J 12BB-	.	.	.
*	*v	*v	*
=41	=41	=41
*^	*	*
12rEE	12EEE-L 12EE-	2g- 2ee- 2gg-	.
6E-	12AAn 12An	.	.
.	12BB-J 12B-	.	.
4rEE	12G-L 12e- 12g-	.	.
.	12BB- 12B-	.	.
.	12EEE-J 12EE-	.	.
4rEE	12EEE-L 12EE-	2cc-X 2gg- 2ccc-X	.
.	12C-X 12G- 12c-X	.	.
.	12G-J 12c- 12g-	.	.
4rEE	12G-L 12c- 12g-	.	.
.	12FFF 12FF	.	.
.	12GGG-J 12GG-	.	.
*v	*v	*	*
=42	=42	=42
*	*^	*
12GGG-L 12GG-	4ddn	4b- 4bb-	.
12BB- 12B-	.	.	.
12G-J 12B- 12g-	.	.	.
12G-L 12B- 12g-	4b-	[4dn [4dd	.
12BB- 12B-	.	.	.
12GG-J 12G-	.	.	.
12GG-L 12G-	4b-	8dL] 8dd]	.
12BB- 12B-	.	.	.
.	.	8e-J 8ee-	.
12E-J 12B- 12e-	.	.	.
12E-L 12B- 12e-	4b- 4ee-	8fL 8ff	.
12BB- 12B-	.	.	.
.	.	8g-J 8gg-	.
12FFJ 12F	.	.	.
=43	=43	=43	=43
12EE-L 12E-	4rc	8B-L 8g- 8b-	.
12BB- 12G- 12B-	.	.	.
.	.	8cJ 8g- 8b- 8cc	.
12E-J 12B- 12e-	.	.	.
12BBB-L 12BB-	4rc	8d-L 8g- 8b- 8dd-	.
12E- 12B- 12e-	.	.	.
.	.	8fJ 8b- 8ff	.
12G-J 12d- 12g-	.	.	.
12BBB-L 12BB-	4e- 4g- 4cc	4.e- 4.ee-	.
12E- 12G-	.	.	.
12G-J 12c 12g-	.	.	.
12AAAnL 12AAn	4e- 4g- 4cc	.	.
12G- 12c 12g-	.	.	.
.	.	8d- 8dd-	.
12G-J 12d- 12g-	.	.	.
=44	=44	=44	=44
12BBB-L 12BB-	4g-	4d- 4dd-	.
12CC 12C	.	.	.
12DD-J 12D-	.	.	.
12GG-L 12G-	6ddd-	12bb-L 12bbb-	.
12AA- 12A-	.	12gg- 12ggg-	.
12BB-J 12B-	12gg-	12ccJ 12ccc	.
4G- 4d- 4g-	6gg-	12dd-L 12ddd-	.
.	.	12g- 12gg-	.
.	12g-	12e-J 12ee-	.
12BBB-L 12BB-	4g-	4d- 4dd-	.
12DD- 12D-	.	.	.
12DDnJ 12Dn	.	.	.
=45	=45	=45	=45
12EE-L 12E-	4rc	8B-L 8g- 8b-	.
12BB- 12G- 12B-	.	.	.
.	.	8cJ 8g- 8b- 8cc	.
12E-J 12B- 12e-	.	.	.
12BBB-L 12BB-	4rc	8d-L 8g- 8b- 8dd-	.
12E- 12B- 12e-	.	.	.
.	.	8fJ 8b- 8ff	.
12G-J 12d- 12g-	.	.	.
12BBB-L 12BB-	4e- 4g- 4cc	4.e- 4.ee-	.
12E- 12G- 12c	.	.	.
12G-J 12c 12g-	.	.	.
12AAAnL 12AAn	4e- 4g- 4cc	.	.
12G- 12c 12g-	.	.	.
.	.	8d- 8dd-	.
12G-J 12d- 12g-	.	.	.
=46	=46	=46	=46
12BBB-L 12BB-	4g-	4d- 4dd-	.
12CC 12C	.	.	.
12DD-J 12D-	.	.	.
12GG-L 12G-	6ddd-	12bb-L 12bbb-	.
12AA- 12A-	.	12gg- 12ggg-	.
12BB-J 12B-	12gg-	12ccJ 12ccc	.
4G- 4d- 4g-	6gg-	12dd-L 12ddd-	.
.	.	12g- 12gg-	.
.	12g-	12e-J 12ee-	.
12r	4g-	4d- 4dd-	.
12CC-XL 12C-X	.	.	.
12BBB-J 12BB-	.	.	.
=47	=47	=47	=47
12BBB--L 12BB--	12gnL	8d-L 8dd-	.
12En 12B-- 12en	12g	.	.
.	.	8e-XJ 8ee-X	.
12GnJ 12d- 12gn	12dd-J	.	.
12GL 12d- 12g	12dd-L	8enL 8een	.
12G 12d- 12g	12dd-	.	.
.	.	8dd-J 8ddd-	.
12GJ 12d- 12g	12eeJ	.	.
12d-L 12g 12dd-	12eeL	8cc-XL 8ccc-X	.
12d- 12g 12dd-	12ee	.	.
.	.	[8b--J [8bb--	.
12GJ 12d- 12g	12eeJ	.	.
12d-L 12g 12dd-	12eeL	8b--L] 8bb--]	.
12G 12d- 12g	12ee	.	.
.	.	8eJ 8ee	.
12BBB--J 12BB--	12dd-J	.	.
=48	=48	=48	=48
12AAA-L 12AA-	12dd-L	4f 4ff	.
12A- 12d- 12a-	12dd-	.	.
12A-J 12d- 12a-	12dd-J	.	.
12FL 12d- 12f	12dd-L	4.a- 4.aa-	.
12F 12d- 12f	12dd-	.	.
12FJ 12d- 12f	12dd-J	.	.
12AAA-L 12AA-	12dd-L	.	.
12F-X 12d- 12f-X	12dd-	.	.
.	.	8a- 8aa-	.
12F-J 12d- 12f-	12dd-J	.	.
12A-L 12d- 12a-	12dd-L	8b-L 8bb-	.
12F- 12d- 12f-	12dd-	.	.
.	.	8a-J 8aa-	.
12F-J 12d- 12f-	12dd-J	.	.
=49	=49	=49	=49
12AAA-L 12AA-	12dd-L	2gn 2ggn	.
12E- 12d- 12e-	12dd-	.	.
12E-J 12d- 12e-	12dd-J	.	.
12B-L 12d- 12b-	12dd-L	.	.
12E- 12d- 12e-	12dd-	.	.
12E-J 12d- 12e-	12dd-J	.	.
12E-L 12d- 12e-	12dd-L	4g-X 4gg-X	.
12B-- 12d- 12b--	12dd-	.	.
12E-J 12d- 12e-	12dd-J	.	.
12FL 12d- 12f	12dd-L	4f 4ff	.
12B-- 12d- 12b--	12dd-	.	.
12FJ 12d- 12f	12dd-J	.	.
=50	=50	=50	=50
12AAA-L 12AA-	12rc	2.f 2.ff	.
12G- 12B-- 12d- 12g-	12fL 12b-- 12dd-	.	.
12G-J 12B-- 12d- 12g-	12fJ 12b-- 12dd-	.	.
12G-L 12B-- 12d- 12g-	12fL 12b-- 12dd-	.	.
12G- 12B-- 12d- 12g-	12f 12b-- 12dd-	.	.
12G-J 12B-- 12d- 12g-	12fJ 12b-- 12dd-	.	.
12G-L 12B-- 12c 12g-	12fL 12b-- 12cc	.	.
12G- 12B-- 12c 12g-	12f 12b-- 12cc	.	.
12G-J 12B-- 12c 12g-	12fJ 12b-- 12cc	.	.
12G-L 12B-- 12c 12g-	12b--L 12cc	4e- 4ee-	.
12G- 12B-- 12c 12g-	12e- 12b-- 12cc	.	.
12G-J 12A- 12c 12g-	12e-J 12a- 12cc	.	.
=51	=51	=51	=51
12FL 12A- 12f	4rc	4d- 4a- 4dd-	.
12DD-	.	.	.
12D-J	.	.	.
12FL	4rc	4d- 4f 4b-	.
12B-	.	.	.
12fJ	.	.	.
12A-L	4c	2f 2a-	.
12D-	.	.	.
12E-J	.	.	.
12FL	4c-X	.	.
12AA-	.	.	.
12DD-J	.	.	.
=52	=52	=52	=52
*	*	*^	*
12GG-L	4c-X\	2d-	4d-	.
12DD-	.	.	.	.
12GG-J	.	.	.	.
12F-XL	4B-\	.	4g-	.
12GG-	.	.	.	.
12B-J	.	.	.	.
12E-L	8B--\L	4d-	4fn	.
12GG-	.	.	.	.
.	8A-\J	.	.	.
12AA-J	.	.	.	.
12BB--L	4G-\	8d-L	4e-	.
12DD-	.	.	.	.
.	.	8cnJ	.	.
12G-J	.	.	.	.
*	*	*v	*v	*
=53	=53	=53	=53
12D-L	4rc	4A- 4d- 4f	.
12DD-	.	.	.
12D-J	.	.	.
12FL	4rc	4d- 4f 4b-	.
12B-	.	.	.
12fJ	.	.	.
12A-L	4c	2f 2a-	.
12D-	.	.	.
12E-J	.	.	.
12FL	4c-X	.	.
12AA-	.	.	.
12DD-J	.	.	.
=54	=54	=54	=54
*	*	*^	*
12GG-L	4c-X\	2d-	4d-	.
12DD-	.	.	.	.
12GG-J	.	.	.	.
12F-XL	4B-\	.	4g-	.
12GG-	.	.	.	.
12B-J	.	.	.	.
12E-L	8B--\L	4d-	4fn	.
12GG-	.	.	.	.
.	8A-\J	.	.	.
12AA-J	.	.	.	.
12BB--L	4G-\	8d-L	4e-	.
12DD-	.	.	.	.
.	.	8cnJ	.	.
12G-J	.	.	.	.
*	*	*v	*v	*
*	*v	*v	*
=55	=55	=55
4DD- 4AA- 4D-	4F 4A- 4d- 4f	.
4F 4B- 4f	4b- 4dd- 4bb-	.
4DD- 4AA- 4D-	4F 4A- 4d- 4f	.
*clefG2	*	*
4c-X 4d- 4cc-X	4a- 4dd- 4aa-	.
*clefF4	*	*
=56	=56	=56
4DD- 4GG- 4D-	4G- 4B- 4d- 4g-	.
*clefG2	*	*
4c-X 4d- 4cc-X	4g- 4dd- 4gg-	.
*clefF4	*	*
4DD- 4GG- 4D-	4G- 4B- 4d- 4g-	.
*clefG2	*	*
4B-- 4e- 4b--	4g- 4ccn 4gg-	.
*clefF4	*	*
=57	=57	=57
4DD- 4AA- [4D-	4F 4A- 4d- 4f	.
4D-] 4B-- 4e-	4g- 4cc 4gg-	.
4DD- 4AA- [4D-	4F 4A- 4d- 4f	.
4D-] 4G- 4c	4e- 4b-- 4ee-	.
=58	=58	=58
4DD- [4D-	4F 4A- 4d- 4f	.
4D-] 4E- 4B--	4c 4g- 4cc	.
4DD- 4AA- [4D-	4F 4A- 4d- 4f	.
8D-] 8E- 8B--	4c 4g- 4cc	.
8DD-	.	.
=59	=59	=59
8D-L 8A-	4F 4d- 4f	.
8AA-J	.	.
2A- 2d- 2a-	2f 2dd- 2ff	.
8r	4r	.
8CC#X	.	.
=60||	=60||	=60||
*k[f#c#g#d#]	*k[f#c#g#d#]	*
8C#L 8G#	4E 4c# 4e	.
8GG#J	.	.
2G# 2c# 2g#	2e 2cc# 2ee	.
4r	4r	.
=61	=61	=61
2EE 2E	1r	.
2AA 2A	.	.
=62	=62	=62
*	*^	*
4GG# 4G#	2E 2e	2raa	.
[4BBB#X [4BB#X	.	.	.
8BBB#L] 8BB#]	2A 2a	4raa	.
8CC# 8C#	.	.	.
8DD# 8D#	.	12fff#L	.
.	.	12ccc#	.
8EEJ 8E	.	.	.
.	.	12aaJ	.
=63	=63	=63	=63
*^	*	*	*
[8qGGG#\ [8qGG#	.	.	.	.
2GGG#] 2GG#] 2B#X 2e	4G# 4g#	2e 2ee	12eeeL	.
.	.	.	12bb#X	.
.	.	.	12ff#J	.
.	[4BB#X [4B#	.	12eeL	.
.	.	.	12gg#	.
.	.	.	12eeJ	.
2FF# [2F#	8BB#L] 8B#]	2a 2aa	4ee	.
.	8C#J 8c#	.	.	.
.	8D#L 8d#	.	8dd#L	.
.	8EJ 8e	.	8cc#J	.
=64	=64	=64	=64	=64
4F#]	4D# 4d#	4g# 4gg#	4b#X	.
4rEE	4FF# 4F#	[4B#X [4b#	4g#	.
2rEE	4EE 4E	8B#L] 8b#]	2g#	.
.	.	8c#J 8cc#	.	.
.	8DD#L 8D#	8d#L 8dd#	.	.
.	8CC#J 8C#	8eJ 8ee	.	.
=65	=65	=65	=65	=65
2BBB 2BB	4rc	8G#L 8g#	4e	.
.	.	8A#XJ 8a#X	.	.
.	4G# 4e	8BL 8b	4g#	.
.	.	8d#J 8dd#	.	.
2EE 2E	4rc	8c##X 8cc##X	8g#	.
.	.	4a# 4aa#X	8raa	.
.	4A#X 4g# 4cc##X	.	12gg#L	.
.	.	.	12cc##	.
.	.	8g# 8gg#	.	.
.	.	.	12a#J	.
=66	=66	=66	=66	=66
4DD# 4D#	2BB 2B	4f##X 4ff##X	12bL	.
.	.	.	12f##	.
.	.	.	12c#J	.
[4FFF##X [4FF##X	.	4rc	12BL	.
.	.	.	12d#	.
.	.	.	12BJ	.
8FFF##L] 8FF##]	2E 2e	4rc	4raa	.
8GGG# 8GG#	.	.	.	.
8AAA#X 8AA#X	.	4rc	12ccc#L	.
.	.	.	12gg#	.
8BBBJ 8BB	.	.	.	.
.	.	.	12eeJ	.
=67	=67	=67	=67	=67
16qqBBB\LL 16qqBB	.	.	.	.
[16qqDDD#\JJ [16qqDD#	.	.	.	.
*	*^	*	*	*
4F##X\ 4B	2DDD#] 2DD#]	4D# 4d#	2B 2b	12bbL	.
.	.	.	.	12ff##X	.
.	.	.	.	12cc#J	.
4r	.	[4FF##X [4F##	.	12bL	.
.	.	.	.	12dd#	.
.	.	.	.	12bJ	.
2r	2CC# 2C#	8FF##L] 8F##]	2e 2ee	4b	.
.	.	8GG# 8G#	.	.	.
.	.	8AA#X 8A#X	.	8a#XL	.
.	.	8BBJ 8B	.	8g#J	.
*	*v	*v	*	*	*
*v	*v	*	*	*
=68	=68	=68	=68
4AA#X 4A#X	4rc	4d# 4f##X 4dd#	.
4CC# 4C#	4d#	[4F##X [4f##	.
4BBB 4BB	2d#	8F##L] 8f##]	.
.	.	8G#J 8g#	.
8AAA#XL 8AA#	.	8A#XL 8a#X	.
8GGG#J 8GG#	.	8BJ 8b	.
=69	=69	=69	=69
*^	*	*	*
2FFF# 2FF#	4rc	4B	8D#L 8d#	.
.	.	.	8E#XJ 8e#X	.
.	4D# 4B	4d#	8F#L 8f#	.
.	.	.	8A#XJ 8a#X	.
2BBB 2BB	4rc	4d#	8G##X 8g##X	.
.	.	.	4e# 4ee#X	.
.	4E#X 4d# 4g##X	4rc	.	.
.	.	.	8d# 8dd#	.
*v	*v	*	*	*
=70	=70	=70	=70
4AAA#X 4AA#X	8c##L	8c##X 8g# 8cc##X	.
.	8d#J	8raa	.
[4CCC##X [4CC##X	2A#X	8E#XL 8e#X	.
.	.	8G#J 8g#	.
8CCC##L] 8CC##]	.	4F# 4f#	.
8DDD# 8DD#	.	.	.
8EEE#X 8EE#X	4G##X	4D# 4d#	.
8FFF#J 8FF#	.	.	.
=71	=71	=71	=71
*^	*	*	*
2EEE#X 2EE#X	4rc	4A#X	8C#XL 8c#X	.
.	.	.	8D#J 8d#	.
.	4C# 4A#X	4c#	8E#XL 8e#X	.
.	.	.	8G#J 8g#	.
2AAA#X 2AA#X	4rc	4c#	8F# 8f#	.
.	.	.	4d# 4dd#	.
.	4D# 4c# 4f#	4rc	.	.
.	.	.	8c# 8cc#	.
*v	*v	*	*	*
=72	=72	=72	=72
4GGG# 4GG#	8B#L	8B#X 8f# 8b#X	.
.	8c#J	8raa	.
[4BBBB#X [4BBB#X	4G#	8D#L 8d#	.
.	.	8F#J 8f#	.
8BBBB#L] 8BBB#]	2rc	4E#X 4G# 4e#X	.
8CCC#J 8CC#	.	.	.
8DDD#L 8DD#	.	[4C# 4G# 4Bn [4c#	.
8EEE#XJ 8EE#X	.	.	.
=73	=73	=73	=73
4FFF# 4FF#	4rc	8C#] 8F# 8A#X 8c#]	.
.	.	8e#X	.
4C# 4A#X 4c#	2f#	8f#L	.
.	.	8a#XJ	.
4C# 4B 4d#	.	8g#	.
.	.	4dd#	.
4C# 4B 4e#X	4g#	.	.
.	.	8cc#	.
*	*v	*v	*
=74	=74	=74
8C#L 8A#X 8f#	4a#X 4cc#	.
8FF#J	.	.
8r	12ccc#L	.
.	12gg#	.
*clefG2	*	*
8c# 8a#X	.	.
.	12ff#J	.
4.A#X 4.f#	12aa#XL	.
.	12dd#	.
.	12cc#J	.
.	12g#L	.
.	12a#	.
8r	.	.
.	12f#J	.
*clefF4	*	*
=75	=75	=75
*	*^	*
4FFF# 4FF#	4rc	8raa	.
.	.	8e#X 8ee#X	.
4C# 4A#X 4c#	8f#L 8ff#	2ff#	.
.	8a#XJ 8aa#X	.	.
4C# 4B 4d#	8g# 8gg#	.	.
.	4dd# 4ddd#	.	.
4C# 4B 4e#X	.	4gg#	.
.	8cc# 8ccc#	.	.
*	*v	*v	*
=76	=76	=76
8C#L 8A#X 8f#	4cc# 4ff# 4ccc#	.
8FFF#J 8FF#	.	.
8r	12cccc#L	.
.	12ggg#	.
8C#	.	.
.	12fff#J	.
*clefG2	*	*
4A#X 4f# 4cc#	12aaa#XL	.
.	12ddd#	.
.	12ccc#J	.
*clefF4	*	*
8r	12gg#L	.
.	12aa#X	.
8FF#	.	.
.	12ff#J	.
=77||	=77||	=77||
*k[b-e-a-d-g-]	*k[b-e-a-d-g-]	*
*	*^	*
8EnL	4gg-	8gg-L	.
8B-J 8en	.	8aa-J	.
8r	4een	8bb-L	.
8GG-	.	8ddd-J	.
8EL	2ee 2bb-	4ccc	.
8B-J 8e	.	.	.
8r	.	4cc	.
8FF	.	.	.
=78	=78	=78	=78
8EnL	4g-	8g-L	.
8B-J	.	8a-J	.
8r	4en	8b-L	.
8FF	.	8dd-J	.
8EL	2e 2b-	4cc	.
8B-J	.	.	.
8r	.	4c	.
8G-	.	.	.
*	*v	*v	*
=79	=79	=79
8G-L	4r	.
8B-J 8en	.	.
8r	4d- 4g- 4b-	.
8En	.	.
8EL	4r	.
8G-J 8g-	.	.
8r	4c 4b- 4cc	.
8D-	.	.
=80	=80	=80
8D-L	4r	.
8G-J 8en	.	.
8r	4B- 4b- 4dd-	.
8GG-	.	.
8GG-L	4r	.
8D-J 8B-	.	.
8r	4en 4b- 4een	.
8FF	.	.
=81	=81	=81
*^	*	*
4rEE	8D-L 8B-	4f 4b- 4ff	.
.	8FFJ	.	.
4rEE	4D- 4B- 4f	4b- 4ff 4bb-	.
4rEE	4rc	4r	.
4FF	8BB-L	12ddd-L	.
.	.	12gg-	.
.	8CJ	.	.
.	.	12eenJ	.
=82	=82	=82	=82
2FF	4D-	12ffL	.
.	.	12b-	.
.	.	12g-J	.
.	4B-	12fL	.
.	.	12dd-	.
.	.	12g-J	.
2rEE	4.FFF 4.FF	12enL	.
.	.	12f	.
.	.	12B-J	.
.	.	4F	.
.	8FF	.	.
=83	=83	=83	=83
4rEE	8E-L 8B-	4e- 4g- 4ee-	.
.	8BB-J	.	.
4rEE	4G- 4e- 4b-	4ee- 4aa- 4eee-	.
4rEE	4rc	4r	.
4FF 4BB-	8E-L	12ggg-L	.
.	.	12ccc	.
.	8FJ	.	.
.	.	12aanJ	.
=84	=84	=84	=84
2FF 2BB-	4G-	12bb-L	.
.	.	12ee-	.
.	.	12ccJ	.
.	4e-	12b-L	.
.	.	12gg-	.
.	.	12ccJ	.
4rEE	4FFF 4FF	12anL	.
.	.	12b-	.
.	.	12e-J	.
4E-	8AA-XL 8A-X	12cccc-XL	.
.	.	12fff	.
.	8BB-J 8B-	.	.
.	.	12dddnJ	.
=85	=85	=85	=85
4rEE	4C-X 4c-X	12eee-L	.
.	.	12aa-	.
.	.	12ffJ	.
4rEE	4A- 4a-	12ee-L	.
.	.	12ccc-X	.
.	.	12ffJ	.
4rEE	4FFF 4FF	12ddnL	.
.	.	12ee-	.
.	.	12a-J	.
4A-	8D-XL 8d-X	12ffffL	.
.	.	12bbb-	.
.	8E-J 8e-	.	.
.	.	12gggnJ	.
*v	*v	*	*
=86	=86	=86
4F 4f	12aaa-L	.
.	12ddd-	.
.	12bb-J	.
*clefG2	*	*
4d- 4dd-	12aa-L	.
.	12fff	.
.	12bb-J	.
*clefF4	*	*
2FFF 2FF	12ggnL	.
.	12aa-	.
.	12dd-J	.
.	8G-XL 8g-X	.
.	8A-J 8a-	.
=87	=87	=87
*	*^	*
12FFFL 12FF	12g-L	4B- 4b-	.
12D- 12G- 12d-	12g-	.	.
12D-J 12G- 12d-	12g-J	.	.
12D-L 12G- 12B-	12g-L 12b-	8cL 8cc	.
12D- 12G- 12B-	12g- 12b-	.	.
.	.	8d-J 8dd-	.
12D-J 12G- 12B-	12g-J 12b-	.	.
12FFFL 12FF	12gnL 12b-	4en 4een	.
12C 12B- 12c	12b-	.	.
12CJ 12B- 12c	12b-J	.	.
*clefG2	*	*	*
12B-L 12c 12b-	12ddnL	8fL 8ff	.
12B- 12c 12b-	12dd	.	.
.	.	8gJ 8ggn	.
12B-J 12c 12b-	12ddJ	.	.
*clefF4	*	*	*
=88	=88	=88	=88
12FFFL 12FF	12ffL 12aan	2cc 2ccc	.
12An 12e- 12an	12cc 12ff 12aa	.	.
12AJ 12e- 12a	12ccJ 12ff 12aa	.	.
12AL 12e- 12a	12ccL 12ff 12aa	.	.
12A 12e- 12a	12cc 12ff 12aa	.	.
12AJ 12e- 12a	12ccJ 12ff 12aa	.	.
12FL 12e- 12a	12ffL 12aa	2cc#X 2ccc#X	.
12F 12e- 12a	12cc# 12ff 12aa	.	.
12FJ 12e- 12a	12cc#J 12ff 12aa	.	.
12FL 12e- 12a	12cc#L 12ff 12aa	.	.
12F 12e- 12a	12cc# 12ff 12aa	.	.
12FFFJ 12FF	12cc#J 12ff 12aa	.	.
*	*v	*v	*
=89||	=89||	=89||
*k[b-e-]	*k[b-e-]	*
*^	*^	*
12rEE	12BBBB-L 12BBB-	4rc	2dd 2bb- 2ddd	.
6BB-	12EEn 12En	.	.	.
.	12FFJ 12F	.	.	.
4rEE	12DL 12B- 12d	4f 4b- 4ff	.	.
.	12FF 12F	.	.	.
.	12BBBB-J 12BBB-	.	.	.
4rEE	12BBBB-L 12BBB-	4rc	2gg 2ddd 2ggg	.
.	12GG 12D 12G	.	.	.
.	12DJ 12G 12d	.	.	.
4rEE	12DL 12G 12d	4g 4dd 4gg	.	.
.	12CCC 12CC	.	.	.
.	12DDDJ 12DD	.	.	.
*v	*v	*	*	*
=90	=90	=90	=90
12DDDL 12DD	4ff 4ddd 4fff	4raa	.
12AA 12A	.	.	.
12FJ 12d	.	.	.
12FL 12d	[4a [4aa	4dd	.
12AA 12A	.	.	.
12DDJ 12D	.	.	.
12DDL 12D	8aL] 8aa]	4ff	.
12BB- 12F 12B-	.	.	.
.	8b-J 8bb-	.	.
12FJ 12B- 12f	.	.	.
12FL 12B- 12f	8ccL 8ff 8bb- 8ccc	4raa	.
12BB- 12F 12B-	.	.	.
.	8ddJ 8ff 8bb- 8ddd	.	.
12DDJ 12D	.	.	.
*	*v	*v	*
=91	=91	=91
12DDL 12D	8gL 8ee- 8gg	.
12BB- 12E- 12B-	.	.
.	8aJ 8ee- 8gg 8aa	.
12E-J 12B- 12e-	.	.
12CCL 12C	8b-L 8ee- 8gg 8bb-	.
12E- 12B- 12e-	.	.
.	8ddJ 8gg 8bb- 8ddd	.
12B-J 12e- 12b-	.	.
12GGGL 12GG	8ccL 8ee- 8bb- 8ccc	.
12E- 12B- 12e-	.	.
.	[8aaJ [8eee- [8aaa	.
*clefG2	*	*
12cJ 12b- 12cc	.	.
12b-L 12ee- 12bb-	8aaL] 8eee-] 8aaa]	.
12c 12b- 12cc	.	.
.	8ggJ 8eee- 8ggg	.
*clefF4	*	*
12E-J 12B- 12e-	.	.
=92	=92	=92
*	*^	*
12GGGL 12GG	4cc 4ee- 4bb-	2.cc 2.ccc	.
12E- 12B- 12e-	.	.	.
12cJ 12b- 12cc	.	.	.
12FFFL 12FF	4cc 4ff 4aa	.	.
12F 12A 12f	.	.	.
12cJ 12a 12cc	.	.	.
12EEE-L 12EE-	4cc 4gg	.	.
12G 12c 12g	.	.	.
12cJ 12g 12cc	.	.	.
12AAA-XL 12AA-X	4bbn	4dd 4ddd	.
12F 12Bn 12f 12bn	.	.	.
12GGGJ 12GG	.	.	.
=93	=93	=93	=93
*^	*	*	*
12rEE	12CCCL 12CC	4rc	2ee- 2ccc 2eee-	.
6C	12FF#X 12F#X	.	.	.
.	12GGJ 12G	.	.	.
4rEE	12E-L 12c 12e-	4g 4cc 4gg	.	.
.	12GG 12G	.	.	.
.	12CCCJ 12CC	.	.	.
4rEE	12CCCL 12CC	4rc	2aa-X 2eee- 2aaa-X	.
.	12AA-X 12E- 12A-X	.	.	.
.	12E-J 12A- 12e-	.	.	.
4rEE	12E-L 12A- 12e-	4a-X 4ee- 4aa-	.	.
.	12DDD 12DD	.	.	.
.	12EEE-J 12EE-	.	.	.
*v	*v	*	*	*
=94	=94	=94	=94
12EEE-L 12EE-	4gg 4bbn 4ggg	4raa	.
12BBn 12Bn	.	.	.
12GJ 12e- 12g	.	.	.
12GL 12e- 12g	[4bn [4bb	4gg	.
12GG 12G	.	.	.
12EE-J 12E-	.	.	.
12EE-L 12E-	8bL] 8bb]	4gg	.
12GG 12G	.	.	.
.	8ccJ 8ccc	.	.
12GJ 12c 12g	.	.	.
12GL 12c 12g	8ddL 8ddd	4gg 4ccc	.
12C 12G 12c	.	.	.
.	8ee-J 8eee-	.	.
12DDJ 12D	.	.	.
=95	=95	=95	=95
12CCL 12C	8gL 8ee- 8gg	4raa	.
12GG 12E- 12G	.	.	.
.	8aJ 8ee- 8gg 8aa	.	.
12E-J 12c 12e-	.	.	.
12GGGL 12GG	8b-L 8ee- 8gg 8bb-	4raa	.
12C 12G 12c	.	.	.
.	8ddJ 8gg 8ddd	.	.
12B-J 12e- 12b-	.	.	.
12GGGL 12GG	4.cc 4.ccc	4ee- 4aa	.
12E- 12A 12e-	.	.	.
12AJ 12e- 12a	.	.	.
12FFF#XL 12FF#X	.	4ee-	.
12E- 12A 12e-	.	.	.
.	8b- 8bb-	.	.
12E-J 12B- 12e-	.	.	.
=96	=96	=96	=96
12GGGL 12GG	4b- 4ee- 4bb-	4raa	.
12AAA 12AA	.	.	.
12BBB-J 12BB-	.	.	.
12EE-L 12E-	12gggL 12gggg	6bbb-	.
12FF 12F	12eee- 12eeee-	.	.
12GGJ 12G	12aaJ 12aaa	12eee-	.
*clefG2	*	*	*
4e- 4b- 4ee-	12bb-L 12bbb-	6eee-	.
.	12ee- 12eee-	.	.
.	12ccJ 12ccc	12ee-	.
*clefF4	*	*	*
12r	4b- 4bb-	4ee-	.
12BBB-L 12BB-	.	.	.
12BBBnJ 12BBn	.	.	.
=97	=97	=97	=97
12CCL 12C	8gL 8ee- 8gg	4raa	.
12GG 12E- 12G	.	.	.
.	8aJ 8ee- 8gg 8aa	.	.
12E-J 12c 12e-	.	.	.
12GGGL 12GG	8b-L 8ee- 8gg 8bb-	4raa	.
12C 12G 12c	.	.	.
.	8ddJ 8gg 8ddd	.	.
12B-J 12e- 12b-	.	.	.
12GGGL 12GG	4.cc 4.ccc	4ee- 4aa	.
12E- 12A 12e-	.	.	.
12AJ 12e- 12a	.	.	.
12FFF#XL 12FF#X	.	4ee-	.
12E- 12A 12e-	.	.	.
.	8b- 8bb-	.	.
12E-J 12B- 12e-	.	.	.
=98	=98	=98	=98
12GGGL 12GG	4b- 4ee- 4bb-	4raa	.
12AAA 12AA	.	.	.
12BBB-J 12BB-	.	.	.
12EE-L 12E-	12gggL 12gggg	6bbb-	.
12FF 12F	12eee- 12eeee-	.	.
12GGJ 12G	12aaJ 12aaa	12eee-	.
*clefG2	*	*	*
4en 4b- 4een	12bb-L 12bbb-	6eeen	.
.	12een 12eee	.	.
.	12ccJ 12ccc	12ee	.
*clefF4	*	*	*
12r	4b- 4bb-	4ee	.
12AAA-XL 12AA-X	.	.	.
12GGGJ 12GG	.	.	.
=99	=99	=99	=99
12GGG-XL 12GG-X	12eenL	8b-L 8bb-	.
12C#X 12B- 12c#X	12ee	.	.
.	.	8ccnJ 8cccn	.
12EnJ 12B- 12en	12bb-J	.	.
*clefG2	*	*	*
12B-L 12en 12b-	12bb-L	8cc#XL 8ccc#X	.
12B- 12e 12b-	12bb-	.	.
.	.	8bb-J 8bbb-	.
12eJ 12b- 12een	12ccc#J	.	.
12b-L 12ee 12bb-	12ccc#L	8aa-XL 8aaa-X	.
12e 12b- 12ee	12ccc#	.	.
.	.	[8gg-X [8ggg-X	.
12B-J 12e 12b-	12ccc#J	.	.
12B-L 12e 12b-	12ccc#L	8gg-] 8ggg-]	.
*clefF4	*	*	*
12E 12B- 12e	12ccc#	.	.
.	.	8cc#J 8ccc#	.
12GGG-J 12GG-	12bb-J	.	.
=100	=100	=100	=100
12FFFL 12FF	12bb-L	4dd 4ddd	.
*clefG2	*	*	*
12B- 12f 12b-	12bb-	.	.
12DJ 12d	12bb-J	.	.
12dL 12b- 12dd	12bb-L	4.ff 4.fff	.
12F 12f	12bb-	.	.
12dJ 12b- 12dd	12bb-J	.	.
*clefF4	*	*	*
12FFFL 12FF	12bb-L	.	.
*clefG2	*	*	*
12B- 12f 12b-	12bb-	.	.
.	.	8ff 8fff	.
12D-XJ 12d-X	12bb-J	.	.
12d-L 12b- 12dd-X	12bb-L	8ggL 8ggg	.
12F 12f	12bb-	.	.
.	.	8ffJ 8fff	.
12d-J 12b- 12dd-	12bb-J	.	.
*clefF4	*	*	*
=101	=101	=101	=101
12FFFL 12FF	12bb-L	2een 2eeen	.
12G 12c 12g	12bb-	.	.
12CJ 12G 12c	12bb-J	.	.
12B-L 12en 12b-	12bb-L	.	.
12C 12G 12c	12bb-	.	.
12B-J 12e 12b-	12bb-J	.	.
12CL 12G-X 12B- 12c	12gg-XL 12bb-	4ee-X 4eee-X	.
12B- 12e-X 12g-X 12b-	12gg- 12bb-	.	.
12CJ 12G- 12B- 12c	12gg-J 12bb-	.	.
12DL 12G- 12B- 12d	12gg-L 12bb-	4dd 4ddd	.
12B- 12d 12g- 12b-	12gg- 12bb-	.	.
12DJ 12G- 12B- 12d	12gg-J 12bb-	.	.
=102	=102	=102	=102
12FFFL 12FF	12gg-XL 12bb-	2.dd 2.ddd	.
12E- 12G-X 12B- 12g-X	12dd 12gg- 12bb-	.	.
12E-J 12G- 12B- 12g-	12ddJ 12gg- 12bb-	.	.
12E-L 12G- 12B- 12g-	12ddL 12gg- 12bb-	.	.
12E- 12G- 12B- 12g-	12dd 12gg- 12bb-	.	.
12E-J 12G- 12B- 12g-	12ddJ 12gg- 12bb-	.	.
12E-L 12G- 12A 12g-	12ddL 12gg- 12aa	.	.
12E- 12G- 12A 12g-	12dd 12gg- 12aa	.	.
12E-J 12G- 12A 12g-	12ddJ 12gg- 12aa	.	.
12E-L 12G- 12A 12g-	12gg-L 12aa	4cc 4ccc	.
12E- 12G- 12A 12g-	12cc 12gg- 12aa	.	.
12E-J 12F 12A 12f	12ccJ 12ff 12aa	.	.
=103	=103	=103	=103
12DL 12F 12B- 12f	4rc	4b- 4ff 4bb-	.
12BBBB- 12BBB-	.	.	.
12BBB-J 12BB-	.	.	.
12DL 12d	4rc	4d 4b- 4dd 4gg	.
*clefG2	*	*	*
12G 12g	.	.	.
12dJ 12dd	.	.	.
*clefF4	*	*	*
12FL 12f	4a	2d 2dd 2ff	.
12BB- 12B-	.	.	.
12CJ 12c	.	.	.
12DL 12d	4a-X	.	.
12FF 12F	.	.	.
12BBB-J 12BB-	.	.	.
=104	=104	=104	=104
12EE-L 12E-	2e- 2b-	4a-X 4b-	.
12BBBB- 12BBB-	.	.	.
12EE-J 12E-	.	.	.
12D-XL 12d-X	.	4g 4ee-	.
12EE- 12E-	.	.	.
12GJ 12g	.	.	.
12CL 12c	8g-XL	4B- 4b- 4ddn	.
12EE- 12E-	.	.	.
.	8fJ	.	.
12FFJ 12F	.	.	.
12GG-XL 12G-X	8b-L	4c 4e- 4cc	.
12BBB- 12BB-	.	.	.
.	8anJ	.	.
12E-J 12e-	.	.	.
=105	=105	=105	=105
12BBB-L 12BB-	4rc	4d 4f 4b- 4dd	.
12BBBB- 12BBB-	.	.	.
12BBB-J 12BB-	.	.	.
12DL 12d	4rc	4d 4b- 4dd 4gg	.
*clefG2	*	*	*
12G 12g	.	.	.
12dJ 12dd	.	.	.
*clefF4	*	*	*
12FL 12f	4a	2d 2dd 2ff	.
12BB- 12B-	.	.	.
12CJ 12c	.	.	.
12DL 12d	4a-X	.	.
12FF 12F	.	.	.
12BBB-J 12BB-	.	.	.
=106	=106	=106	=106
12EE-L 12E-	2e- 2b-	4a-X 4b-	.
12BBBB- 12BBB-	.	.	.
12EE-J 12E-	.	.	.
12D-XL 12d-X	.	4g 4ee-	.
12EE- 12E-	.	.	.
12GJ 12g	.	.	.
12CL 12c	8g-XL	4B- 4b- 4ddn	.
12EE- 12E-	.	.	.
.	8fJ	.	.
12FFJ 12F	.	.	.
12GG-XL 12G-X	8b-L	4c 4e- 4cc	.
12BBB- 12BB-	.	.	.
.	8anJ	.	.
12E-J 12e-	.	.	.
*	*v	*v	*
=107	=107	=107
4BBB- 4FF 4BB-	4D 4F 4B- 4d	.
4D 4G 4d	4g 4b- 4gg	.
4BBB- 4FF 4BB-	4D 4F 4B- 4d	.
4A-X 4B- 4a-X	4f 4b- 4ff	.
=108	=108	=108
4BBB- 4EE- 4BB-	4E- 4G 4B- 4e-	.
4A-X 4B- 4a-X	4e- 4b- 4ee-	.
4BBB- 4EE- 4BB-	4E- 4G 4B- 4e-	.
4G-X 4c 4g-X	4e- 4an 4ee-	.
=109	=109	=109
4BBB- 4FF [4BB-	4D 4F 4B- 4d	.
4BB-] 4G-X 4c	4e- 4a 4ee-	.
4BBB- 4FF [4BB-	4D 4F 4B- 4d	.
4BB-] 4E- 4A	4c 4g-X 4cc	.
=110	=110	=110
4BBB- 4FF [4BB-	4D 4F 4B- 4d	.
4BB-] 4C 4G-X	4A 4e- 4a	.
4BBB- 4FF [4BB-	4D 4F 4B- 4d	.
8BB-] 8C 8G-	4A 4e- 4a	.
8BBB-	.	.
=111	=111	=111
8BB-L 8F	4D 4B- 4d	.
8FFJ	.	.
4D 4B- 4f	4d 4b- 4dd	.
2r	2r	.
=112	=112	=112
*	*^	*
8FFL 8F	2d	4A-X 4a-X	.
8BBB-J 8BB-	.	.	.
8r	.	4G 4g	.
8BBB- 8BB-	.	.	.
8BBB-L 8BB-	2d	4G 4g	.
8FFFJ 8FF	.	.	.
8r	.	4G#X 4g#X	.
8FFF 8FF	.	.	.
*	*v	*v	*
=113	=113	=113
8DL	4An 4d 4an	.
8FFJ	.	.
4D 4A 4d	4f 4a 4dd	.
4r	2r	.
8r	.	.
8FFF 8FF	.	.
=114	=114	=114
8DL	4r	.
8FFJ	.	.
4D 4A 4d	4f 4a 4dd 4ff	.
2r	2r	.
=115	=115	=115
*	*^	*
8EEEnL 8EEn	2rc	4A 4d 4a	.
8FFFJ 8FF	.	.	.
8r	.	4B-- 4d-X 4f	.
8FFF 8FF	.	.	.
8FFFL 8FF	2f	4A-X 4d- 4f	.
8AAA-XJ 8AA-X	.	.	.
8r	.	4A- 4c	.
8DDD 8DD	.	.	.
=116	=116	=116	=116
8DDDL 8DD	4rc	4G 4c 4g	.
8EEE-XJ 8EE-X	.	.	.
8r	4rc	4A-- 4c-X 4e-	.
8EEE- 8EE-	.	.	.
8EEE-L 8EE-	4G-X 4c-	2e-	.
8GGG-XJ 8GG-X	.	.	.
8r	4G- 4B-	.	.
8CCC 8CC	.	.	.
*	*v	*v	*
*	*clefF4	*
=117	=117	=117
8DDD-XL 8DD-X	4F 4B- 4f	.
8DDDnJ 8DDn	.	.
8r	4BB- 4F 4B-	.
8DDD 8DD	.	.
8DDDL 8DD	4BB- 4G-X 4B-	.
8EEE-J 8EE-	.	.
8r	4BB- 4G- 4c	.
8BB-	.	.
*	*clefG2	*
=118	=118	=118
4B-	4r	.
4r	12bb-L	.
.	12ff	.
.	12ee-J	.
4G-X 4e- 4b-	12ffL	.
.	12ee-	.
.	12b-J	.
4r	12e-L	.
.	12b-	.
.	12B-J	.
*	*clefF4	*
=119	=119	=119
8EEE-L 8EE-	4r	.
8FFFJ 8FF	.	.
8r	4BB- 4F 4B-	.
8FFF 8FF	.	.
8FFFL 8FF	4BB- 4F 4B-	.
8GGG-XJ 8GG-X	.	.
8r	4BB- 4E- 4c	.
8BB-	.	.
*	*clefG2	*
=120	=120	=120
4B-	4r	.
4r	12bb-L	.
.	12ff	.
.	12ee-J	.
4r	12ffL	.
.	12ee-	.
.	12b-J	.
4GGG-X 4GG-X	12enL	.
.	12b-	.
.	12B-J	.
=121||	=121||	=121||
*k[b-e-a-d-g-]	*k[b-e-a-d-g-]	*
*^	*	*
4rEE	4FFF 4FF	4r	.
[2.B- [2.c	4En 4en	12ggg-L	.
.	.	12ccc	.
.	.	12bb-J	.
.	4F 4f	12cccL	.
.	.	12ff	.
.	.	12ccJ	.
.	4G- 4g-	12eenL	.
.	.	12b-	.
.	.	12enJ	.
=122	=122	=122	=122
4B-] 4c]	4G- 4g-	4r	.
[2.G- [2.B-	4C 4c	12cccL	.
.	.	12bb-	.
.	.	12eenJ	.
.	4D- 4d-	12ffL	.
.	.	12b-	.
.	.	12fJ	.
.	4E-X 4e-X	12dd-L	.
.	.	12g-	.
.	.	12d-J	.
=123	=123	=123	=123
4G-] 4B-]	4E- 4e-	4r	.
[2.G-	4BB- 4B-	12dd-L	.
.	.	12b-	.
.	.	12fJ	.
.	4C 4c	12b-L	.
.	.	12e-	.
.	.	12B-J	.
.	4D- 4d-	12g-L	.
.	.	12d-	.
.	.	12B-J	.
=124	=124	=124	=124
4G-]	4D- 4d-	4r	.
4rEE	4EEEn 4EEn	4B- 4d- 4g-	.
2rEE	4FFF 4FF	4F 4B- 4d-	.
.	4GGG- 4GG-	4D- 4En 4B-	.
*v	*v	*	*
=125	=125	=125
4GGG- 4GG-	4D- 4En 4B-	.
4EEEn 4EEn	4d- 4g- 4b-	.
4FFF 4FF	4B- 4d- 4f	.
4GGG- 4GG-	4E 4B- 4d-	.
=126	=126	=126
4GGG- 4GG-	4En 4B- 4d-	.
4EEEn 4EEn	4g- 4b- 4dd-	.
4FFF 4FF	4d- 4f 4b-	.
4GGG- 4GG-	4E 4B- 4d- 4en	.
=127	=127	=127
4GGG- 4GG-	4En 4B- 4d- 4en	.
4GG- 4G-	4e 4b- 4dd- 4een	.
4FF 4F	4f 4b- 4dd- 4ff	.
4FF-X 4F-X	4g- 4b- 4dd- 4gg-	.
=128	=128	=128
4EE- 4E-	4g- 4cc-X 4ee- 4gg-	.
4r	4r	.
4FF 4F	4An 4e- 4f 4an	.
4r	4r	.
=129	=129	=129
*^	*	*
4rEE	8BBB-L 8BB-	4r	.
.	8FJ	.	.
4rEE	4B- 4f	4d- 4b-	.
4rEE	4BBB- 4BB-	4r	.
8A-L	4d- 4en 4b-	12ddd-L	.
.	.	12bb-	.
8GnJ	.	.	.
.	.	12eenJ	.
*v	*v	*	*
=130	=130	=130
4G-X 4c 4e-X 4an	12aanL	.
.	12ff	.
.	12ccJ	.
4BBB- 4BB-	12anL	.
.	12ee-	.
.	12ccJ	.
2r	12fL	.
.	12g-	.
.	12e-J	.
.	12AnL	.
.	12g-	.
.	12fJ	.
=131	=131	=131
*^	*	*
4rEE	4BBB- 4BB-	4en	.
[2.B- [2.c	4En 4en	12ggg-L	.
.	.	12ccc	.
.	.	12bb-J	.
.	4F 4f	12cccL	.
.	.	12ff	.
.	.	12ccJ	.
.	4G- 4g-	12eenL	.
.	.	12b-	.
.	.	12eJ	.
=132	=132	=132	=132
4B-] 4c]	4G- 4g-	4r	.
4rEE	8CL 8c	12enL	.
.	.	12b-	.
.	8GG-J 8G-	.	.
.	.	12eenJ	.
2rEE	8CCL 8C	12eeL	.
.	.	12bb-	.
.	8GGG-J 8GG-	.	.
.	.	12eeenJ	.
.	12rc	12eeeL	.
.	12.rc	12bbb-	.
.	.	24r	.
.	24CCC 24CC	24eeeJk 24eeeen	.
=133	=133	=133	=133
4rEE	8BBBB-L 8BBB-	4fff 4ffff	.
.	8FFJ 8F	.	.
4rEE	4D- 4B- 4f	4b- 4ff 4bb-	.
4rEE	4BBB- 4BB-	4r	.
8A-L	4d- 4en 4b-	12ddd-L	.
.	.	12bb-	.
8GnJ	.	.	.
.	.	12eenJ	.
*v	*v	*	*
=134	=134	=134
4G-X 4c 4e-X 4an	12aanL	.
.	12ff	.
.	12ccJ	.
4BBB- 4BB-	12anL	.
.	12ee-	.
.	12ccJ	.
2r	12fL	.
.	12g-	.
.	12e-J	.
.	12AnL	.
.	12g-	.
.	12fJ	.
=135	=135	=135
*^	*	*
4rEE	4BBB- 4BB-	4en	.
[2.B- [2.c	4En 4en	12ggg-L	.
.	.	12ccc	.
.	.	12bb-J	.
.	4F 4f	12cccL	.
.	.	12ff	.
.	.	12ccJ	.
.	4G- 4g-	12eenL	.
.	.	12b-	.
.	.	12eJ	.
=136	=136	=136	=136
4B-] 4c]	4G- 4g-	4r	.
4rEE	8CL 8c	12enL	.
.	.	12b-	.
.	8GG-J 8G-	.	.
.	.	12eenJ	.
2rEE	8CCL 8C	12eeL	.
.	.	12bb-	.
.	8GGG-J 8GG-	.	.
.	.	12eeenJ	.
.	12rc	12eeeL	.
.	12.rc	12bbb-	.
.	.	24r	.
.	24CCC 24CC	24eeeenJk	.
=137	=137	=137	=137
4rEE	4BBBB- 4BBB-	4fff 4ffff	.
[2.B- [2.c	4En 4en	12ggg-L	.
.	.	12ccc	.
.	.	12bb-J	.
.	4F 4f	12cccL	.
.	.	12ff	.
.	.	12ccJ	.
.	4G- 4g-	12eenL	.
.	.	12b-	.
.	.	12enJ	.
=138	=138	=138	=138
4B-] 4c]	4G- 4g-	4r	.
4rEE	8CL 8c	12enL	.
.	.	12b-	.
.	8GG-J 8G-	.	.
.	.	12eenJ	.
2rEE	8CCL 8C	12eeL	.
.	.	12bb-	.
.	8GGG-J 8GG-	.	.
.	.	12eeenJ	.
.	12rc	12eeeL	.
.	12.rc	12bbb-	.
.	.	24r	.
.	24CCC 24CC	24eeeJk 24eeeen	.
*v	*v	*	*
=139	=139	=139
4BBBB- 4BBB-	4fff 4ffff	.
4C 4G- 4c	4en 4b- 4een	.
4BBB- 4FF 4D-	4ff 4bb- 4fff	.
4C 4G- 4c	4e 4b- 4ee	.
=140	=140	=140
8BBB-L 8FF 8D-	8ffL 8bb- 8fff	.
8CJ 8G- 8c	8enJ 8b- 8een	.
8BBB-L 8FF 8D-	8ffL 8bb- 8fff	.
8CJ 8G- 8c	8eJ 8b- 8ee	.
8BBB-L 8FF 8D-	8ffL 8bb- 8fff	.
8CJ 8G- 8c	8eJ 8b- 8ee	.
8BBB-L 8FF 8D-	8ffL 8bb- 8fff	.
8CJ 8G- 8c	8eJ 8b- 8ee	.
=141	=141	=141
4BBB- 4FF 4D-	4ff 4bb- 4fff	.
4r	4r	.
2F 2B- 2f	2b- 2dd- 2bb-	.
*	*clefF4	*
=142	=142	=142
1BBB- 1FF 1BB-	1D- 1F 1B-	.
==	==	==
*-	*-	*-
!!!system-decoration: {(*)}
!!!ENC: Bryan Jacob Bell
!!!END: November 2021 to April 2022
!!!PED: Konstantin Igumnov and Yakov Milstein
!!!PTL: A.N. Skryabin: Polnoe sobranie sochinenii dlia fortepiano (Muzgiz)
